X: 11
T: Greig's Pipes
R: reel
M: 4/4
L: 1/8
K: Gmaj
B3 B BAGA | B2 GB AGEG | B3 B BAGB | A2 BG AGEG |
B3 B BAGA | BAGB AGEG | Bded BcdB | AcBG AGEG ||
DGGF GABG | GdBG AGEG | DGGF GABc | dBAc BGGE |
DGGF G2BG | dGBG AGEG | DGGF GABc | dBAc BGGB ||
d2 Bd efge | d2 BG AGEG | d2 Bd efge | a3 g ageg |
d2 Bd efge | d2 BG AGEG | d2 Bd efge | a3 a aged |]


Tune 605	Setting 21375

